icons/arrow-right-24.svg

<svg width="24" height="24" viewBox="0 0 24 24" fill="none" xmlns="http://www.w3.org/2000/svg">
<path fill-rule="evenodd" clip-rule="evenodd" d="M13.2197 19.0303C13.5126 19.3232 13.9874 19.3232 14.2803 19.0303L20.5303 12.7803C20.8232 12.4874 20.8232 12.0126 20.5303 11.7197L14.2803 5.46967C13.9874 5.17678 13.5126 5.17678 13.2197 5.46967C12.9268 5.76256 12.9268 6.23744 13.2197 6.53033L18.1893 11.5L3.75 11.5C3.33579 11.5 3 11.8358 3 12.25C3 12.6642 3.33579 13 3.75 13L18.1893 13L13.2197 17.9697C12.9268 18.2626 12.9268 18.7374 13.2197 19.0303Z" fill="#24292E"/>
</svg>

<svg xmlns="http://www.w3.org/2000/svg" width="24" height="24" viewBox="0 0 24 24"><path fill-rule="evenodd" d="M13.22 19.03a.75.75 0 001.06 0l6.25-6.25a.75.75 0 000-1.06l-6.25-6.25a.75.75 0 10-1.06 1.06l4.97 4.97H3.75a.75.75 0 000 1.5h14.44l-4.97 4.97a.75.75 0 000 1.06z"/></svg>
